X:25
T:Village Quickstep
M:6/8
Q:1/8=300
%%staves (1 2)
K:D
V:1
%%MIDI channel 1
%%MIDI program 72
%%MIDI transpose 8
%%MIDI grace 1/8
%%MIDI ratio 3 1
(3(A/B/c/)|d2d d2d|d2d d2e|fed edc|d2z z2d|e2e e2e|e2e e2f|edc dcB|A2 z z2::
(F/G/)|A2z B2A|LA/Ld/zz z2(F/G/)|A2z B2A|LA/Le/zz z2(F/G/)|A2z B2A|Lf2Lf Ld2d|efe eBc|d2z z2::
z|A6-|A2A ABA|F6-|F2F FGA|B6-|B2B dcB|A6-|
A2A AGF|E6-|E2z (A2B/c/|Ld2)z (A2B/c/|Ld2)z (A2B/c/|Ld2)c Ld2c|Ld2z z2:|
V:2
%%MIDI channel 1
%%MIDI program 72
%%MIDI transpose 8
%%MIDI grace 1/8
%%MIDI ratio 3 1
A|z6|z6|z6|z6|z6|z6|z6|z5::
z|z6|z6|z6|z6|z6|z6|z6|z5::
z|!mf!F6-|F2F FGF|D6-|D2D DEF|G6-|G2G BAG|F6-|
F2F FED|C6-|C2z !ff!(G3|LF2)z (G3|LF2)z (G3|LF2)G LF2G|LF2z z2:|

